X: 522
T: Rose Waltz
C: Dave Ingledew
%date:2001
O: the Bursledon Village Band
M: 3/4
L: 1/8	% converted from 1/4 by JC
K: Em
E3 F G2 | F2 G2 A2 | B2 E4-  | E6 |\
E3 F G2 | F2 G2 A2 | B6-     | B6 |]
c3 B Ac | B2 G4    | A3 G FA | G2 E4 |\
G3 A B2 | A4    G2 | F6-     | F6 |]
